X: 144
Q: "Andanteno."
M: 3/8
L: 1/16
K: C
[|\
!p!G2 G3 c | (c B) B4 | F2 F3 A | (AG) G4 | E2 A2 G2 | (G ^F) =F4 |
^F G c4 | ec cG GE | Fd d4 |1 d2 A3 B | d2 c4 :|2 d2 e3 d | d2 c4 |]


